!!!COM: Music21
!!!OTL: María Manuela
!!!OMV: pezas_rumbas_maria-manuela_maria-manuela-partitura.musicxml
**kern
*part1
*staff1
*I"Bagpipes
*I'Bag
*clefG^2
*k[]
*M2/4
=1
!LO:TX:a:t=Allegro
*MM100
!LO:TX:a:t=[quarter]=100
4.r
16ccLL
16eeJJ
=||
8eeL
16ggL
16eeJJ
8eeL
16aaL
16eeJJ
=
8ggL
16ffL
16ddJJ
8bL
16bL
16ddJJ
=
8ddL
16ffL
16ddJJ
8ddL
16ggL
16ddJJ
=
8ffL
[8eeJ
.
8eeL]
16ccL
16eeJJ
=
8eeL
16ggL
16eeJJ
8eeL
16aaL
16eeJJ
=
8ggL
16ffL
16ddJJ
8bL
16bL
16ddJJ
!!linebreak:original
=
8ddL
16ffL
16ddJJ
8ddL
16ggL
16ddJJ
=
4cc
8r
16ccLL
16eeJJ
=||
8eeL
16ggL
16eeJJ
8eeL
16aaL
16eeJJ
=
8ggL
16ffL
16ddJJ
8bL
16bL
16ddJJ
=
8ddL
16ffL
16ddJJ
8ddL
16ggL
16ddJJ
=
8ffL
[8eeJ
.
8eeL]
16ccL
16eeJJ
=
8eeL
16ggL
16eeJJ
8eeL
16aaL
16eeJJ
!!linebreak:original
=
8ggL
16ffL
16ddJJ
8bL
16bL
16ddJJ
=
8ddL
16ffL
16ddJJ
8ddL
16ggL
16ddJJ
=||
8ccL
16ccL
16ddJJ
8eeL
16ffL
16ggJJ
=||
8aaL
16aaL
16ffJJ
[4aa
=
8aaL]
16cccL
16aaJJ
8cccL
16aaL
16cccJJ
=
8bbL
16aaL
16ggJJ
8aaL
[8ggJ
=
8ggL]
16ccL
16ddJJ
8eeL
16ffL
16eeJJ
!!linebreak:original
=
8ggL
16ffL
16eeJJ
8ffL
[8ddJ
=
8ddL]
16bL
16ccJJ
8ddL
16eeL
16ffJJ
=
8aaL
[8ggJ
4gg_
=
8ggL]
16ccL
16ddJJ
8eeL
16ffL
16ggJJ
=||
8aaL
16aaL
16ffJJ
[4aa
=
8aaL]
16cccL
16aaJJ
8cccL
16aaL
16cccJJ
=
8bbL
16aaL
16ggJJ
8aaL
[8ggJ
=
8ggL]
16ccL
16ddJJ
8eeL
16ffL
16eeJJ
!!linebreak:original
=
8ggL
16ffL
16eeJJ
8ffL
[8ddJ
=
8ddL]
16bL
16ccJJ
8ddL
.
16ccL
16bJJ
=
8ccL
16ffL
16aaJJ
8bbL
.
16ggL
16bbJJ
=
2ccc
!!linebreak:original
=||
8.cccL
16ggJk
8cccL
16ggL
16cccJJ
=
8bbL
[8aaJ
8aaL]
8ffJ
=
8.bbL
16ffJk
8bbL
16cccL
16bbJJ
=
8aaL
[8ggJ
8ggL]
8eeJ
=
8.aaL
16ddJk
16ggLL
16ff
16ee
16ddJJ
=
8ggL
[8ffJ
8ffL]
8ddJ
=
8.ggL
16eeJk
8ffL
16eeL
16ddJJ
=
4.cc
.
.
.
.
8gg
.
!!pagebreak:original
=||
8.cccL
16ggJk
8cccL
16ggL
16cccJJ
=
8bbL
[8aaJ
8aaL]
8ffJ
=
8.bbL
16ffJk
8bbL
16cccL
16bbJJ
=
8aaL
[8ggJ
8ggL]
8eeJ
=
8.aaL
16ddJk
16ggLL
16ff
16ee
16ddJJ
=
8ggL
[8ffJ
8ffL]
8ddJ
=
8.ggL
16eeJk
8ffL
16eeL
16ddJJ
!!linebreak:original
=
4cc
8r
16ccLL
16eeJJ
=||
8ccL
16ccL
16eeJJ
16ggLL
16cc
16ee
16ggJJ
=
16ccc
8.r
4r
=||
*-
!!!system-decoration: s1,s2
